X: 3
T: Jenny Picking Cockles
R: reel
M: 4/4
L: 1/8
K: Dmix
|:Addc AGEF|GEcE dEcE|Addc AGEF|GEcE ED D2|Addc AGEF|G2AB c2cd|ecdc AGEF|GEcE ED D2:||f2 fd e2 ed|cAAB cdeg|f2 fd e2 ed|eaag edd e|~f2 fd ~e2 ed|cAAB c3 d|eddc AGEF|GEcE ED D2|f2 fd e2 ed|cAAB cdeg|fedf ed(3Bcd|eaag fdd e|fafd ~e2 ed|cAAB c3 d|eddc AGEF|GEcE ED D2


Tune 1357	Setting 29543

